X: 435
P: Longways for as many as will
M: 3/2
L: 1/8
K: Dm
[|\
c4 e2c2 efg2 | e2 g4 c2 g4 | defg a2d2 fga2 | d2 a4 d2 a4 |
gfed c2g2 ABcA | GFED C2c2 E4 | F2EF G2FG A3A | =B^cd2 d3^c d4 |]

